X:1
T:Oh, Freedom
M:4/4
L:1/4
K:F
 C2- D3/4- C/4| F/2 F z/2 z z| G3- A| G/2 F z/2 z z| A2-A/2-G/2 A|\
 G/2 F3/2 F A| G3/2 z/2 G A| A- G F G| A A A/2 A A/2-| A3/2 z/2 G A|\
 G F F/2 D _A/2-|A/2-G/2 F FG/2-F/2| z A A/2 A G/2-| G3/2 z/2 A G|\
 F4-| F||
